X:1
T:Title
%%score 1 { 2 | 3 }
L:1/8
Q:1/4=100
M:4/4
K:F
V:1 treble nm="Grand Piano, Piano"
V:2 bass nm="Grand Piano, Piano"
V:3 bass 
V:1
 [CA]4 [B,G]2 [A,F]2 | [DF]3 [B,D] [B,D]4 | C4 [CF]2 [CA]2 | [CG]8 | [CA]4 [B,G]2 [A,F]2 | %5
w: 1.~Nea rer,~ my~|God,~ to~ thee,~|nea rer~ to~|thee!~|E'en~ though~ it~|
 [DF]3 [B,D] [B,D]4 | [A,C]2 [CF]2 [CE]2 [CG]2 | [CF]8 | [Fc]4 [Fd]2 [Fc]2 | [Fc]3 [FA] [Fc]4 | %10
w: be~ a~ cross~|that~ * rais eth~|me,~|still~ all~ my~|song~ shall~ be,~|
 [Fc]4 [Fd]2 [Fc]2 | [Gc]3 [CA] [CG]4 | [CA]4 [B,G]2 [A,F]2 | [DF]3 [B,D] [B,D]4 | %14
w: nea rer,~ my~|God,~ to~ thee;~|nea rer,~ my~|God,~ to~ thee,~|
 [A,C]2 [CF]2 [CE]2 [CG]2 | [CF]8 |] %16
w: nea * rer~ to~|thee!~|
V:2
 F,4 E,2 F,2 | B,3 F, F,4 | A,4 F,2 F,2 | E,8 | F,4 E,2 F,2 | B,3 F, F,4 | F,2 A,2 G,2 B,2 | A,8 | %8
 A,4 B,2 A,2 | A,3 C A,4 | A,4 B,2 A,2 | G,3 F, E,4 | F,4 E,2 F,2 | B,3 F, F,4 | F,2 A,2 G,2 B,2 | %15
 A,8 |] %16
V:3
 z4 C,2 D,2 | B,,3 B,, B,,4 | F,,4 A,,2 F,,2 | C,8 | z4 C,2 D,2 | B,,3 B,, B,,4 | C,4 C,2 C,2 | %7
 F,,8 | F,4 F,2 F,2 | F,3 F, F,4 | F,4 B,,2 F,2 | E,4 C,4 | z4 C,2 D,2 | B,,3 B,, B,,4 | %14
 C,4 C,2 C,2 | F,,8 |] %16

